assets/Scientist/Medium/Flat/scientist_flat_medium.svg

<svg width="32" height="32" viewBox="0 0 32 32" fill="none" xmlns="http://www.w3.org/2000/svg">
<path d="M9 18.0111C9.38214 17.6957 9.78597 17.4057 10.2089 17.1435L16 17L21.7195 17.1046C22.1685 17.3787 22.5963 17.6841 23 18.0177L24 24L23 30H9L8 24L9 18.0111Z" fill="#E6E6E6"/>
<path d="M16.5 24.3302V30H15.5V24.1998L11.5 17.5L12.8463 15.9579L16 15.5L19.1474 15.9579L20.5 17.5L16.5 24.3302Z" fill="#FF6723"/>
<path d="M23 18.0277C25.4423 20.0462 27 23.098 27 26.51V30H23V18.0277Z" fill="#F4F4F4"/>
<path d="M19.2137 15.9879C20.1634 16.2781 21.0587 16.6935 21.8804 17.2148L22.07 19.21C22.08 19.33 22 19.44 21.88 19.46L21.09 19.6C20.91 19.63 20.84 19.84 20.96 19.98L21.72 20.82C21.8 20.91 21.8 21.05 21.71 21.14L16.83 26.12C16.71 26.24 16.5 26.15 16.5 25.98V22.37C16.5 22.33 16.51 22.29 16.52 22.26L19.2137 15.9879Z" fill="#F4F4F4"/>
<path d="M10.1227 17.2076C10.9442 16.6878 11.8394 16.2739 12.7894 15.985L15.48 22.24L15.4851 22.2599C15.4931 22.2906 15.5 22.3169 15.5 22.35V25.96C15.5 26.14 15.29 26.22 15.17 26.1L10.29 21.12C10.2 21.03 10.2 20.9 10.28 20.8L11.04 19.97C11.16 19.84 11.09 19.62 10.91 19.59L10.12 19.45C9.99995 19.42 9.91995 19.32 9.93995 19.19L10.1227 17.2076Z" fill="#F4F4F4"/>
<path d="M9 18.0211V30H5V26.51C5 23.0905 6.55631 20.0378 9 18.0211Z" fill="#F4F4F4"/>
<path d="M27 23C27.55 23 28 23.4103 28 23.9119V26H26V23.9119C26.01 23.4103 26.45 23 27 23Z" fill="#BB806E"/>
<path d="M27.22 20H27V21.4399L25.5 22.5L24 21.4399V20H23.78C23.61 20 23.47 19.7941 23.47 19.5441V19.4559C23.47 19.2059 23.61 19 23.78 19H27.22C27.39 19 27.53 19.2059 27.53 19.4559V19.5441C27.52 19.7941 27.38 20 27.22 20Z" fill="#B4F6FC"/>
<path d="M27 21.4399H24V27.7499H27V21.4399Z" fill="#C3EF3C"/>
<path d="M24.2842 22.3299H24.6983C24.7429 22.3299 24.7835 22.2399 24.7795 22.1299V22.0899C24.7795 21.9799 24.7429 21.8899 24.6983 21.8899H24.2842C24.2395 21.8899 24.203 21.9799 24.203 22.0899V22.1299C24.203 22.2399 24.2395 22.3299 24.2842 22.3299Z" fill="#008463"/>
<path d="M24.2842 24.1199H24.6983C24.7429 24.1199 24.7835 24.0299 24.7795 23.9199V23.8799C24.7795 23.7699 24.7429 23.6799 24.6983 23.6799H24.2842C24.2395 23.6799 24.203 23.7699 24.203 23.8799V23.9199C24.203 24.0299 24.2395 24.1199 24.2842 24.1199Z" fill="#008463"/>
<path d="M23.5091 25.5C23.5182 25.1 23.837 24.75 24.2105 24.75H27.2075C27.6447 24.75 28 25.14 28 25.62V29.13C28 29.61 27.6447 30 27.2075 30H24.2105C23.837 30 23.5182 29.69 23.5091 29.28C23.5 29.01 23.6184 28.77 23.8097 28.63C23.6184 28.5 23.5 28.27 23.5 28.01C23.5 27.75 23.6275 27.52 23.8097 27.39C23.6184 27.26 23.5 27.03 23.5 26.77C23.5 26.51 23.6275 26.28 23.8097 26.15C23.6275 26.01 23.5 25.77 23.5091 25.5Z" fill="#C68D7B"/>
<path d="M16 18.5C14.8932 18.5 14 17.5359 14 16.3413V13.6587C14 12.4641 14.8932 11.5 16 11.5C17.1068 11.5 18 12.4641 18 13.6587V16.3413C18 17.5359 17.1068 18.5 16 18.5Z" fill="#B87A66"/>
<path d="M22.25 5.29C21.95 4.77 21.48 4.41 20.96 4.23C20.39 4.04 19.89 3.66 19.58 3.15C19.16 2.46 18.4 2 17.54 2C17.21 2 16.89 2.07 16.61 2.19C16.22 2.36 15.78 2.36 15.39 2.19C15.1 2.07 14.79 2 14.46 2C13.61 2 12.86 2.44 12.44 3.11C12.11 3.63 11.62 4.03 11.03 4.23C10.48 4.42 10 4.81 9.71004 5.36C9.28004 6.16 9.37004 7.12 9.86004 7.83C10.03 8.09 10.13 8.4 10.13 8.71V12.88C10.13 13.81 10.72 14.63 11.6 14.94L13.49 15.59V8.17C13.64 8.03 13.76 7.86 13.87 7.67C14.04 7.38 14.14 7.06 14.17 6.75C14.26 6.76 14.36 6.77 14.45 6.77C15.04 6.77 15.58 6.56 15.99 6.2C16.41 6.55 16.94 6.77 17.53 6.77C17.63 6.77 17.72 6.76 17.81 6.75C17.85 7.07 17.94 7.38 18.11 7.67C18.22 7.86 18.35 8.02 18.49 8.17V15.6L20.38 14.95C21.26 14.65 21.85 13.82 21.85 12.89V8.72C21.85 8.41 21.95 8.1 22.13 7.84C22.65 7.1 22.72 6.11 22.25 5.29Z" fill="#593B39"/>
<path d="M12.7701 10.5899C12.7701 11.5122 12.0224 12.2599 11.1001 12.2599C10.1777 12.2599 9.43005 11.5122 9.43005 10.5899C9.43005 9.66761 10.1777 8.91992 11.1001 8.91992C12.0224 8.91992 12.7701 9.66761 12.7701 10.5899Z" fill="#BB806E"/>
<path d="M22.56 10.5899C22.56 11.5122 21.8123 12.2599 20.89 12.2599C19.9677 12.2599 19.22 11.5122 19.22 10.5899C19.22 9.66761 19.9677 8.91992 20.89 8.91992C21.8123 8.91992 22.56 9.66761 22.56 10.5899Z" fill="#BB806E"/>
<path d="M10.75 8.18812C10.8253 6.41802 12.3341 5 14.1775 5H15.4852C15.7669 5 16.0084 5.16585 16.119 5.40976C16.5214 6.27805 17.4167 6.82439 18.3925 6.82439H19.8311C20.6359 6.86341 21.2697 7.51707 21.2495 8.30731L21.2375 8.80981L20.9276 13.6439C20.6559 15.5659 18.976 17 16.974 17H15.0627C13.0708 17 11.3808 15.5659 11.1192 13.6439L10.75 8.18812Z" fill="#C68D7B"/>
<path d="M15.6541 10.2897L15.1583 12.0282C15.0554 12.384 15.2986 12.75 15.6447 12.75H16.3743C16.7204 12.75 16.9636 12.384 16.8607 12.0282L16.365 10.2897C16.2621 9.90342 15.7663 9.90342 15.6541 10.2897Z" fill="#AB6A55"/>
<path d="M16.0005 13.7057C15.45 13.7057 14.9301 13.5669 14.4918 13.3212C14.3389 13.2358 14.186 13.4174 14.2777 13.5669C14.6447 14.1542 15.2767 14.5493 16.0005 14.5493C16.7243 14.5493 17.3563 14.1542 17.7233 13.5669C17.8151 13.4174 17.652 13.2465 17.5093 13.3212C17.0607 13.5669 16.551 13.7057 16.0005 13.7057Z" fill="#990838"/>
<path d="M18.7244 6.5H13.316C11.7809 6.5 10.5102 7.71664 10.5 9.24497C10.5 10.7633 11.7504 12 13.2855 12C14.2513 12 15.1053 11.5073 15.6034 10.7633C15.7966 10.4817 16.2134 10.4817 16.4065 10.7633C16.925 11.5274 17.8094 12.0201 18.8159 11.9899C20.2595 11.9397 21.4794 10.7029 21.4998 9.27514C21.5201 7.75686 20.2697 6.5 18.7244 6.5Z" fill="#BB806E"/>
<path d="M12.18 10.28C12.33 9.65995 12.89 9.19995 13.56 9.19995C14.26 9.19995 14.83 9.68995 14.96 10.35C14.99 10.5 14.88 10.63 14.73 10.63H12.45C12.27 10.63 12.13 10.45 12.18 10.28Z" fill="white"/>
<path d="M19.83 10.28C19.68 9.65995 19.12 9.19995 18.45 9.19995C17.75 9.19995 17.18 9.68995 17.05 10.35C17.02 10.5 17.13 10.63 17.28 10.63H19.56C19.74 10.63 19.87 10.46 19.83 10.28Z" fill="white"/>
<path d="M12.86 10.39C12.86 9.88998 13.27 9.47998 13.77 9.47998C14.28 9.47998 14.69 9.88998 14.68 10.39C14.68 10.47 14.67 10.55 14.65 10.63H12.89C12.87 10.55 12.86 10.47 12.86 10.39Z" fill="#7D4533"/>
<path d="M19.15 10.39C19.15 9.88998 18.74 9.47998 18.24 9.47998C17.73 9.47998 17.33 9.88998 17.33 10.39C17.33 10.47 17.34 10.55 17.36 10.63H19.12C19.14 10.55 19.15 10.47 19.15 10.39Z" fill="#7D4533"/>
<path d="M13.77 9.87012C14.06 9.87012 14.29 10.1001 14.29 10.3901C14.29 10.4801 14.27 10.5601 14.23 10.6301H13.31C13.27 10.5601 13.25 10.4801 13.25 10.3901C13.25 10.1001 13.48 9.87012 13.77 9.87012Z" fill="black"/>
<path d="M18.24 9.87012C17.95 9.87012 17.72 10.1001 17.72 10.3901C17.72 10.4801 17.74 10.5601 17.78 10.6301H18.7C18.74 10.5601 18.76 10.4801 18.76 10.3901C18.76 10.1001 18.53 9.87012 18.24 9.87012Z" fill="black"/>
<path d="M13.62 10.0199C13.62 10.1082 13.5484 10.1799 13.46 10.1799C13.3717 10.1799 13.3 10.1082 13.3 10.0199C13.3 9.9315 13.3717 9.85986 13.46 9.85986C13.5484 9.85986 13.62 9.9315 13.62 10.0199Z" fill="white"/>
<path d="M18.12 10.0199C18.12 10.1082 18.0484 10.1799 17.96 10.1799C17.8717 10.1799 17.8 10.1082 17.8 10.0199C17.8 9.9315 17.8717 9.85986 17.96 9.85986C18.0484 9.85986 18.12 9.9315 18.12 10.0199Z" fill="white"/>
<path d="M12.3451 8.42675C12.3916 8.45985 12.4473 8.4776 12.5044 8.47752C12.5662 8.47719 12.6261 8.45605 12.6744 8.41752C13.1162 8.1244 13.6481 7.99852 14.1744 8.06252C14.21 8.0671 14.2461 8.06448 14.2806 8.0548C14.3151 8.04513 14.3473 8.0286 14.3753 8.0062C14.4033 7.9838 14.4265 7.956 14.4436 7.92444C14.4606 7.89288 14.4711 7.85822 14.4744 7.82252C14.4817 7.75118 14.4608 7.67981 14.4161 7.62372C14.3715 7.56763 14.3066 7.5313 14.2354 7.52252C13.5663 7.43577 12.8888 7.60156 12.3354 7.98752C12.2904 8.02264 12.2575 8.07095 12.2413 8.1257C12.225 8.18044 12.2263 8.23888 12.245 8.29286C12.2636 8.34683 12.2986 8.39364 12.3451 8.42675Z" fill="#593B39"/>
<path d="M19.3464 8.42152C19.3941 8.45778 19.4524 8.47745 19.5124 8.47752C19.5695 8.47795 19.6264 8.46044 19.673 8.42746C19.7197 8.39449 19.7548 8.3477 19.7735 8.2937C19.7921 8.2397 19.7934 8.1812 19.7771 8.12645C19.7607 8.0717 19.7276 8.02346 19.6824 7.98852C19.1283 7.60389 18.4515 7.4379 17.7824 7.52252C17.7119 7.53297 17.6483 7.57045 17.605 7.62703C17.5617 7.6836 17.5421 7.75482 17.5505 7.82557C17.5588 7.89632 17.5943 7.96105 17.6496 8.00603C17.7048 8.05101 17.7754 8.07271 17.8464 8.06652C18.3728 8.00144 18.905 8.12741 19.3464 8.42152Z" fill="#593B39"/>
<path d="M10.2363 9.24325C10.2475 7.56394 11.6421 6.23633 13.316 6.23633H18.7244C20.4137 6.23633 21.7858 7.61045 21.7635 9.2787C21.7411 10.8491 20.4072 12.1984 18.8251 12.2535L18.8238 12.2536C17.724 12.2865 16.756 11.7475 16.1888 10.912C16.1005 10.7839 15.9101 10.7838 15.8215 10.9115C15.2763 11.7249 14.3421 12.2637 13.2855 12.2637C11.6076 12.2637 10.2363 10.9116 10.2363 9.245L10.2363 9.24325ZM10.7637 9.24588C10.7642 10.6154 11.8937 11.7363 13.2855 11.7363C14.1599 11.7363 14.9331 11.2905 15.3843 10.6166L15.386 10.6141C15.6839 10.1799 16.3261 10.1799 16.624 10.6141L16.6248 10.6152C17.0945 11.3075 17.8949 11.7535 18.8074 11.7264C20.1121 11.6806 21.2177 10.5565 21.2361 9.27163C21.2544 7.90332 20.1256 6.76373 18.7244 6.76373H13.316C11.9201 6.76373 10.7734 7.86892 10.7637 9.24588Z" fill="#9B9B9B"/>
</svg>

<svg xmlns="http://www.w3.org/2000/svg" width="32" height="32" fill="none"><path fill="#E6E6E6" d="M9 18.011c.382-.315.786-.605 1.209-.867L16 17l5.72.105c.449.274.876.58 1.28.913L24 24l-1 6H9l-1-6 1-5.989Z"/><path fill="#FF6723" d="M16.5 24.33V30h-1v-5.8l-4-6.7 1.346-1.542L16 15.5l3.147.458L20.5 17.5l-4 6.83Z"/><path fill="#F4F4F4" d="M23 18.028a10.98 10.98 0 0 1 4 8.482V30h-4V18.028ZM19.214 15.988c.95.29 1.845.706 2.666 1.227l.19 1.995c.01.12-.07.23-.19.25l-.79.14c-.18.03-.25.24-.13.38l.76.84c.08.09.08.23-.01.32l-4.88 4.98c-.12.12-.33.03-.33-.14v-3.61c0-.04.01-.08.02-.11l2.694-6.272ZM10.123 17.208c.821-.52 1.716-.934 2.666-1.223l2.691 6.255.005.02c.008.03.015.057.015.09v3.61c0 .18-.21.26-.33.14l-4.88-4.98c-.09-.09-.09-.22-.01-.32l.76-.83a.23.23 0 0 0-.13-.38l-.79-.14c-.12-.03-.2-.13-.18-.26l.183-1.982ZM9 18.021V30H5v-3.49c0-3.42 1.556-6.472 4-8.489Z"/><path fill="#BB806E" d="M27 23c.55 0 1 .41 1 .912V26h-2v-2.088c.01-.502.45-.912 1-.912Z"/><path fill="#B4F6FC" d="M27.22 20H27v1.44l-1.5 1.06-1.5-1.06V20h-.22c-.17 0-.31-.206-.31-.456v-.088c0-.25.14-.456.31-.456h3.44c.17 0 .31.206.31.456v.088c-.01.25-.15.456-.31.456Z"/><path fill="#C3EF3C" d="M27 21.44h-3v6.31h3v-6.31Z"/><path fill="#008463" d="M24.284 22.33h.414c.045 0 .085-.09.081-.2v-.04c0-.11-.036-.2-.08-.2h-.415c-.044 0-.081.09-.081.2v.04c0 .11.037.2.081.2ZM24.284 24.12h.414c.045 0 .085-.09.081-.2v-.04c0-.11-.036-.2-.08-.2h-.415c-.044 0-.081.09-.081.2v.04c0 .11.037.2.081.2Z"/><path fill="#C68D7B" d="M23.51 25.5c.008-.4.327-.75.7-.75h2.997c.438 0 .793.39.793.87v3.51c0 .48-.355.87-.793.87H24.21c-.373 0-.692-.31-.7-.72-.01-.27.108-.51.3-.65a.74.74 0 0 1-.31-.62c0-.26.128-.49.31-.62a.74.74 0 0 1-.31-.62c0-.26.128-.49.31-.62a.79.79 0 0 1-.3-.65Z"/><path fill="#B87A66" d="M16 18.5c-1.107 0-2-.964-2-2.159V13.66c0-1.195.893-2.159 2-2.159s2 .964 2 2.159v2.682c0 1.195-.893 2.159-2 2.159Z"/><path fill="#593B39" d="M22.25 5.29c-.3-.52-.77-.88-1.29-1.06a2.56 2.56 0 0 1-1.38-1.08 2.377 2.377 0 0 0-2.97-.96c-.39.17-.83.17-1.22 0-.29-.12-.6-.19-.93-.19-.85 0-1.6.44-2.02 1.11-.33.52-.82.92-1.41 1.12-.55.19-1.03.58-1.32 1.13-.43.8-.34 1.76.15 2.47.17.26.27.57.27.88v4.17c0 .93.59 1.75 1.47 2.06l1.89.65V8.17c.15-.14.27-.31.38-.5.17-.29.27-.61.3-.92a2.32 2.32 0 0 0 1.82-.55c.42.35.95.57 1.54.57.1 0 .19-.01.28-.02a2.373 2.373 0 0 0 .68 1.42v7.43l1.89-.65c.88-.3 1.47-1.13 1.47-2.06V8.72c0-.31.1-.62.28-.88.52-.74.59-1.73.12-2.55Z"/><path fill="#BB806E" d="M12.77 10.59a1.67 1.67 0 1 1-3.34 0 1.67 1.67 0 0 1 3.34 0ZM22.56 10.59a1.67 1.67 0 1 1-3.34 0 1.67 1.67 0 0 1 3.34 0Z"/><path fill="#C68D7B" d="M10.75 8.188C10.825 6.418 12.334 5 14.178 5h1.307c.282 0 .523.166.634.41.402.868 1.298 1.414 2.273 1.414h1.44c.804.04 1.438.693 1.418 1.483l-.012.503-.31 4.834C20.656 15.566 18.976 17 16.974 17h-1.911c-1.992 0-3.682-1.434-3.944-3.356l-.369-5.456Z"/><path fill="#AB6A55" d="m15.654 10.29-.496 1.738c-.103.356.14.722.487.722h.73c.345 0 .589-.366.486-.722l-.496-1.738c-.103-.387-.599-.387-.71 0Z"/><path fill="#990838" d="M16 13.706c-.55 0-1.07-.14-1.508-.385-.153-.085-.306.096-.214.246.367.587.999.982 1.722.982.724 0 1.356-.395 1.723-.982.092-.15-.071-.32-.214-.246a3.118 3.118 0 0 1-1.509.385Z"/><path fill="#BB806E" d="M18.724 6.5h-5.408c-1.535 0-2.806 1.217-2.816 2.745 0 1.518 1.25 2.755 2.786 2.755.965 0 1.82-.493 2.317-1.237a.487.487 0 0 1 .804 0 2.795 2.795 0 0 0 2.409 1.227c1.444-.05 2.663-1.287 2.684-2.715.02-1.518-1.23-2.775-2.776-2.775Z"/><path fill="#fff" d="M12.18 10.28c.15-.62.71-1.08 1.38-1.08.7 0 1.27.49 1.4 1.15a.23.23 0 0 1-.23.28h-2.28c-.18 0-.32-.18-.27-.35ZM19.83 10.28c-.15-.62-.71-1.08-1.38-1.08-.7 0-1.27.49-1.4 1.15-.03.15.08.28.23.28h2.28c.18 0 .31-.17.27-.35Z"/><path fill="#7D4533" d="M12.86 10.39c0-.5.41-.91.91-.91a.9.9 0 0 1 .91.91c0 .08-.01.16-.03.24h-1.76a.986.986 0 0 1-.03-.24ZM19.15 10.39c0-.5-.41-.91-.91-.91-.51 0-.91.41-.91.91 0 .08.01.16.03.24h1.76c.02-.08.03-.16.03-.24Z"/><path fill="#000" d="M13.77 9.87a.516.516 0 0 1 .46.76h-.92a.516.516 0 0 1 .46-.76ZM18.24 9.87a.516.516 0 0 0-.46.76h.92a.516.516 0 0 0-.46-.76Z"/><path fill="#fff" d="M13.62 10.02a.16.16 0 1 1-.32 0 .16.16 0 0 1 .32 0ZM18.12 10.02a.16.16 0 1 1-.32 0 .16.16 0 0 1 .32 0Z"/><path fill="#593B39" d="M12.345 8.427a.274.274 0 0 0 .33-.01 2.227 2.227 0 0 1 1.5-.354.267.267 0 0 0 .3-.24.274.274 0 0 0-.24-.3 2.712 2.712 0 0 0-1.9.465.274.274 0 0 0 .01.439ZM19.346 8.422a.275.275 0 0 0 .327.005.273.273 0 0 0 .01-.438 2.731 2.731 0 0 0-1.9-.466.274.274 0 0 0 .063.544 2.215 2.215 0 0 1 1.5.355Z"/><path fill="#9B9B9B" d="M10.236 9.243c.011-1.68 1.406-3.007 3.08-3.007h5.408c1.69 0 3.062 1.374 3.04 3.043-.023 1.57-1.357 2.92-2.939 2.975h-.001a3.06 3.06 0 0 1-2.635-1.342.224.224 0 0 0-.367 0 3.052 3.052 0 0 1-2.536 1.352c-1.678 0-3.05-1.352-3.05-3.019v-.002Zm.528.003c0 1.37 1.13 2.49 2.522 2.49.874 0 1.647-.446 2.098-1.12l.002-.002a.751.751 0 0 1 1.238 0v.001a2.532 2.532 0 0 0 2.183 1.111c1.305-.045 2.41-1.17 2.43-2.454.017-1.369-1.111-2.508-2.513-2.508h-5.408c-1.396 0-2.543 1.105-2.552 2.482Z"/></svg>
